X: 7117
T: Christmas Eve
R: reel
M: 4/4
K: Gmajor
GE|:DB,DE G2 GA|(3BBB dB ABGA|BAGE DB,DE|G2 BG ABGE|
DB,DE GFGA|B2 dB ABGA|BAAB G~E3|1 ABGF G2 EG:|2 ABGF G2 GA||
|:BG (3Bcd edeg|a2 ge g2 eg|a2 ge g2 ge|de dB A2 GA|BG (3Bcd ed|
egab ge g2|egab ge dBGB|1 ABGF ~G3A:|2 ABGF GAdc||
|:BG (3GGG BGBd|eg (3ggg egdc|BG (3GGG DGBG|FAAG FAdc|
BGGA BGBd|eg (3ggg gfga|bgaf gedB|1 ABGF GAdc:|2 ABGF G EG||

